src/assets/wed_icon/icon_16/check_default.svg

<svg width="16" height="16" viewBox="0 0 16 16" fill="none" xmlns="http://www.w3.org/2000/svg">
<path fill-rule="evenodd" clip-rule="evenodd" d="M14.682 2.88696C15.0206 3.12554 15.1017 3.59344 14.8631 3.93205L8.81718 12.5128C8.18025 13.4167 6.87498 13.5107 6.11516 12.7073L1.20509 7.5154C0.920478 7.21445 0.933719 6.73976 1.23467 6.45515C1.53561 6.17054 2.0103 6.18378 2.29491 6.48473L7.20498 11.6766C7.31353 11.7914 7.49999 11.7779 7.59098 11.6488L13.6369 3.06808C13.8755 2.72947 14.3434 2.64839 14.682 2.88696Z" fill="#A9AABC"/>
</svg>

<svg xmlns="http://www.w3.org/2000/svg" width="16" height="16" fill="none"><path fill="#A9AABC" fill-rule="evenodd" d="M14.682 2.887a.75.75 0 0 1 .181 1.045l-6.046 8.58a1.75 1.75 0 0 1-2.702.195l-4.91-5.192a.75.75 0 0 1 1.09-1.03l4.91 5.192a.25.25 0 0 0 .386-.028l6.046-8.58a.75.75 0 0 1 1.045-.182" clip-rule="evenodd"/></svg>
